web-magabank/image/header/logo-colorida.svg

<svg width="178" height="31" viewBox="0 0 178 31" fill="none" xmlns="http://www.w3.org/2000/svg">
<path d="M33.9162 15.2907L26.4615 0.381348H22.7044L17.1581 11.5335L11.6118 0.381348H7.85469L3.44153 9.20767L0.400024 15.2907L7.85469 30.2H11.6118L4.15718 15.2907L6.00593 11.5932L15.3094 30.1404H19.0069L7.85469 7.83601L9.70345 4.1385L15.3094 15.2907L22.764 30.2H26.5212L33.9162 15.2907ZM19.0665 15.2907L24.6128 4.1385L30.1591 15.2907L24.6128 26.4429L19.0665 15.2907Z" fill="url(#paint0_linear)"/>
<path d="M66.18 14.3365V21.9701H61.4687V15.0521C61.4687 13.1437 60.6934 12.3088 59.441 12.3088C58.0693 12.3088 57.1151 13.2034 57.1151 15.2907V21.9104H52.4038V15.0521C52.4038 13.1437 51.6285 12.3088 50.3761 12.3088C49.0044 12.3088 47.9906 13.2034 47.9906 15.2907V21.9104H43.2793V8.61129H47.7521V10.0426C48.7659 8.96912 50.1972 8.43238 51.7478 8.43238C53.5965 8.43238 55.1471 9.08839 56.0417 10.5197C57.1151 9.20766 58.785 8.43238 60.6934 8.43238C63.8541 8.37274 66.18 10.1619 66.18 14.3365Z" fill="#202020"/>
<path d="M81.6857 14.5154V21.9701H77.3322V20.2406C76.6762 21.5526 75.3045 22.2086 73.3961 22.2086C70.1757 22.2086 68.3866 20.4195 68.3866 18.0936C68.3866 15.6485 70.1757 14.0979 74.3503 14.0979H77.034C76.9743 12.7263 76.0202 11.951 74.1714 11.951C72.8594 11.951 71.4281 12.3684 70.5335 13.0841L68.9829 9.92331C70.5335 8.90948 72.7997 8.37274 74.887 8.37274C79.1809 8.37274 81.6857 10.2811 81.6857 14.5154ZM76.9743 17.6762V16.5431H74.9467C73.4557 16.5431 72.919 17.0798 72.919 17.9147C72.919 18.69 73.575 19.2864 74.6485 19.2864C75.722 19.2267 76.6165 18.7496 76.9743 17.6762Z" fill="#202020"/>
<path d="M99.2191 8.61128V19.5249C99.2191 24.5941 96.3565 26.9796 91.3469 26.9796C88.7825 26.9796 86.3374 26.3832 84.7272 25.2501L86.4567 21.97C87.5898 22.8646 89.3789 23.4013 90.9891 23.4013C93.4939 23.4013 94.5674 22.2682 94.5674 20.1809V19.7635C93.6728 20.8369 92.3012 21.314 90.5717 21.314C86.9934 21.314 84.0116 18.8093 84.0116 14.8732C84.0116 10.9371 86.9934 8.43237 90.5717 8.43237C92.4204 8.43237 93.8517 9.02875 94.7463 10.2811V8.61128H99.2191ZM94.5674 14.8136C94.5674 13.2034 93.315 12.0702 91.6451 12.0702C89.9753 12.0702 88.7229 13.1437 88.7229 14.8136C88.7229 16.4238 89.9753 17.5569 91.6451 17.5569C93.315 17.5569 94.5674 16.4238 94.5674 14.8136Z" fill="#202020"/>
<path d="M114.784 14.5154V21.9701H110.431V20.2406C109.775 21.5526 108.403 22.2086 106.495 22.2086C103.274 22.2086 101.485 20.4195 101.485 18.0936C101.485 15.6485 103.274 14.0979 107.449 14.0979H110.133C110.073 12.7263 109.119 11.951 107.27 11.951C105.958 11.951 104.527 12.3684 103.632 13.0841L102.082 9.92331C103.632 8.90948 105.898 8.37274 107.986 8.37274C112.28 8.37274 114.784 10.2811 114.784 14.5154ZM110.073 17.6762V16.5431H108.045C106.554 16.5431 106.018 17.0798 106.018 17.9147C106.018 18.69 106.674 19.2864 107.747 19.2864C108.821 19.2267 109.715 18.7496 110.073 17.6762Z" fill="#202020"/>
<path d="M131.662 15.5292C131.662 19.4057 128.918 22.0893 125.281 22.0893C122.955 22.0893 120.987 20.9562 119.973 18.9286V21.9701H118.78V3.66141H120.033V12.0106C121.046 10.1022 123.014 8.96913 125.281 8.96913C128.918 8.96913 131.662 11.6528 131.662 15.5292ZM130.469 15.5292C130.469 12.3088 128.203 10.1022 125.281 10.1022C122.299 10.1022 120.092 12.3088 120.092 15.5292C120.092 18.7496 122.299 20.9562 125.281 20.9562C128.203 20.9562 130.469 18.7496 130.469 15.5292Z" fill="#202020"/>
<path d="M144.782 13.7997V21.9701H143.589V19.7038C142.754 21.1948 141.204 22.0893 138.938 22.0893C136.075 22.0893 134.286 20.5984 134.286 18.3918C134.286 16.4238 135.538 14.8136 139.116 14.8136H143.53V13.7997C143.53 11.4142 142.218 10.1022 139.713 10.1022C137.924 10.1022 136.314 10.7582 135.3 11.7124L134.703 10.8179C136.015 9.68477 137.864 8.96912 139.892 8.96912C142.993 8.96912 144.782 10.639 144.782 13.7997ZM143.53 18.1533V15.7678H139.116C136.433 15.7678 135.538 16.9009 135.538 18.3322C135.538 20.002 136.85 21.0755 139.116 21.0755C141.263 21.0755 142.754 20.002 143.53 18.1533Z" fill="#202020"/>
<path d="M161.361 14.4557V21.97H160.109V14.5154C160.109 11.5931 158.558 10.1022 155.934 10.1022C152.893 10.1022 151.044 12.0702 151.044 15.1118V21.97H149.851V9.08838H151.044V11.8913C151.879 10.1022 153.728 9.02874 156.173 9.02874C159.274 8.9691 161.361 10.8179 161.361 14.4557Z" fill="#202020"/>
<path d="M171.022 15.0521L167.683 18.0936V21.9104H166.43V3.66141H167.683V16.6027L175.913 9.0884H177.463L171.917 14.2769L178 21.9701H176.449L171.022 15.0521Z" fill="#202020"/>
<defs>
<linearGradient id="paint0_linear" x1="29.2904" y1="3.18806" x2="5.05377" y2="27.4247" gradientUnits="userSpaceOnUse">
<stop stop-color="#0086FF"/>
<stop offset="1" stop-color="#003C68"/>
</linearGradient>
</defs>
</svg>

<svg width="178" height="31" fill="none" xmlns="http://www.w3.org/2000/svg"><path d="M33.916 15.29L26.462.382h-3.758l-5.546 11.152L11.612.382H7.855L3.442 9.208.4 15.29 7.855 30.2h3.757L4.157 15.29l1.849-3.697 9.303 18.547h3.698L7.855 7.836l1.848-3.698 5.606 11.153L22.764 30.2h3.757l7.395-14.91zm-14.85 0l5.547-11.152 5.546 11.153-5.546 11.152-5.546-11.152z" fill="url(#paint0_linear)"/><path d="M66.18 14.336v7.634h-4.711v-6.918c0-1.908-.776-2.743-2.028-2.743-1.372 0-2.326.894-2.326 2.982v6.62h-4.711v-6.859c0-1.908-.776-2.743-2.028-2.743-1.372 0-2.385.894-2.385 2.982v6.62h-4.712V8.61h4.473v1.432c1.014-1.074 2.445-1.61 3.996-1.61 1.849 0 3.4.655 4.294 2.087 1.073-1.312 2.743-2.088 4.651-2.088 3.161-.06 5.487 1.73 5.487 5.904zM81.686 14.515v7.455h-4.354v-1.73c-.656 1.313-2.027 1.969-3.936 1.969-3.22 0-5.01-1.79-5.01-4.115 0-2.446 1.79-3.996 5.964-3.996h2.684c-.06-1.372-1.014-2.147-2.863-2.147-1.312 0-2.743.417-3.638 1.133l-1.55-3.16c1.55-1.015 3.817-1.551 5.904-1.551 4.294 0 6.799 1.908 6.799 6.142zm-4.712 3.161v-1.133h-2.027c-1.491 0-2.028.537-2.028 1.372 0 .775.656 1.371 1.73 1.371 1.073-.06 1.968-.536 2.325-1.61zM99.22 8.611v10.914c0 5.07-2.864 7.455-7.873 7.455-2.564 0-5.01-.597-6.62-1.73l1.73-3.28c1.133.895 2.922 1.431 4.532 1.431 2.505 0 3.578-1.133 3.578-3.22v-.418c-.894 1.074-2.266 1.551-3.995 1.551-3.579 0-6.56-2.505-6.56-6.44 0-3.937 2.981-6.442 6.56-6.442 1.848 0 3.28.597 4.174 1.85v-1.67h4.473zm-4.653 6.203c0-1.61-1.252-2.744-2.922-2.744-1.67 0-2.922 1.074-2.922 2.744 0 1.61 1.252 2.743 2.922 2.743 1.67 0 2.922-1.133 2.922-2.743zM114.784 14.515v7.455h-4.353v-1.73c-.656 1.313-2.028 1.969-3.936 1.969-3.221 0-5.01-1.79-5.01-4.115 0-2.446 1.789-3.996 5.964-3.996h2.684c-.06-1.372-1.014-2.147-2.863-2.147-1.312 0-2.743.417-3.638 1.133l-1.55-3.16c1.55-1.015 3.816-1.551 5.904-1.551 4.294 0 6.798 1.908 6.798 6.142zm-4.711 3.161v-1.133h-2.028c-1.491 0-2.027.537-2.027 1.372 0 .775.656 1.371 1.729 1.371 1.074-.06 1.968-.536 2.326-1.61zM131.662 15.53c0 3.876-2.744 6.56-6.381 6.56-2.326 0-4.294-1.134-5.308-3.161v3.041h-1.193V3.661h1.253v8.35c1.013-1.909 2.981-3.042 5.248-3.042 3.637 0 6.381 2.684 6.381 6.56zm-1.193 0c0-3.221-2.266-5.428-5.188-5.428-2.982 0-5.189 2.207-5.189 5.427 0 3.22 2.207 5.427 5.189 5.427 2.922 0 5.188-2.206 5.188-5.427zM144.782 13.8v8.17h-1.193v-2.266c-.835 1.49-2.385 2.385-4.651 2.385-2.863 0-4.652-1.49-4.652-3.697 0-1.968 1.252-3.578 4.83-3.578h4.414V13.8c0-2.386-1.312-3.698-3.817-3.698-1.789 0-3.399.656-4.413 1.61l-.597-.894c1.312-1.133 3.161-1.849 5.189-1.849 3.101 0 4.89 1.67 4.89 4.83zm-1.252 4.353v-2.385h-4.414c-2.683 0-3.578 1.133-3.578 2.564 0 1.67 1.312 2.744 3.578 2.744 2.147 0 3.638-1.074 4.414-2.923zM161.361 14.456v7.514h-1.252v-7.455c0-2.922-1.551-4.413-4.175-4.413-3.041 0-4.89 1.968-4.89 5.01v6.858h-1.193V9.088h1.193v2.803c.835-1.789 2.684-2.862 5.129-2.862 3.101-.06 5.188 1.789 5.188 5.427zM171.022 15.052l-3.339 3.042v3.816h-1.253V3.661h1.253v12.942l8.23-7.515h1.55l-5.546 5.189L178 21.97h-1.551l-5.427-6.918z" fill="#202020"/><defs><linearGradient id="paint0_linear" x1="29.29" y1="3.188" x2="5.054" y2="27.425" gradientUnits="userSpaceOnUse"><stop stop-color="#0086FF"/><stop offset="1" stop-color="#003C68"/></linearGradient></defs></svg>
